X: 2
T: Junior Crehan's
R: jig
M: 6/8
L: 1/8
K: Dmaj
|:d|BAF AFE|D3 EDB|ABD E3|FEE E2d|
BAF AFE|D3 EDB|ABD E3|FDD D2:|
|:E|DFA d3|ede fdB|def edB|ABd e2f|
edB AFE|D3 EDB|ABD E3|FDD D2:|


Tune 1880	Setting 1880

